src/img/illus-web.svg

<?xml version="1.0" encoding="UTF-8" standalone="no"?>
<svg width="63px" height="63px" viewBox="0 0 63 63" version="1.1" xmlns="http://www.w3.org/2000/svg" xmlns:xlink="http://www.w3.org/1999/xlink" xmlns:sketch="http://www.bohemiancoding.com/sketch/ns">
    <!-- Generator: Sketch 3.5.2 (25235) - http://www.bohemiancoding.com/sketch -->
    <title>illus-web</title>
    <desc>Created with Sketch.</desc>
    <defs></defs>
    <g id="Page-1" stroke="none" stroke-width="1" fill="none" fill-rule="evenodd" sketch:type="MSPage">
        <g id="Desktop-HD" sketch:type="MSArtboardGroup" transform="translate(-98.000000, -1453.000000)" fill="#FFFFFF">
            <g id="illus-web" sketch:type="MSLayerGroup" transform="translate(98.000000, 1453.000000)">
                <path d="M63,31.5 C63,48.8971636 48.8965909,63 31.5,63 C14.1034091,63 0,48.8971636 0,31.5 C0,14.1034091 14.1034091,0 31.5,0 C48.8965909,0 63,14.1034091 63,31.5" id="Fill-311" sketch:type="MSShapeGroup"></path>
                <path d="M53.99828,43.90925 C53.99828,45.03415 53.08688,45.94555 51.96198,45.94555 L11.23458,45.94555 C10.10968,45.94555 9.19828,45.03415 9.19828,43.90925 L9.19828,15.40035 C9.19828,14.27545 10.10968,13.36335 11.23458,13.36335 L51.96198,13.36335 C53.08688,13.36335 53.99828,14.27545 53.99828,15.40035 L53.99828,43.90925 Z" id="Fill-4606" stroke="#2897C5" stroke-width="1.4" sketch:type="MSShapeGroup"></path>
                <path d="M37.7076,51.1637 L25.4891,51.1637 L25.4891,45.9459 L37.7076,45.9459 L37.7076,51.1637 Z" id="Fill-4607" stroke="#2897C5" stroke-width="1.4" sketch:type="MSShapeGroup"></path>
                <path d="M41.78006,52.18213 C41.78006,52.74423 41.32436,53.19993 40.76156,53.19993 L22.43486,53.19993 C21.87276,53.19993 21.41636,52.74423 21.41636,52.18213 C21.41636,51.61933 21.87276,51.16363 22.43486,51.16363 L40.76156,51.16363 C41.32436,51.16363 41.78006,51.61933 41.78006,52.18213" id="Fill-4608" stroke="#2897C5" stroke-width="1.4" sketch:type="MSShapeGroup"></path>
                <path d="M53.99828,43.90925 L53.99828,37.80035 L9.19828,37.80035 L9.19828,43.90925 C9.19828,45.03415 10.11038,45.94555 11.23458,45.94555 L51.96198,45.94555 C53.08688,45.94555 53.99828,45.03415 53.99828,43.90925" id="Fill-4609" stroke="#2897C5" stroke-width="1.4" sketch:type="MSShapeGroup"></path>
                <path d="M31.59828,44.36887 C30.292264,44.36887 29.22927,43.305876 29.22927,41.99986 C29.22927,40.693844 30.292264,39.63085 31.59828,39.63085 C32.904902,39.63085 33.96729,40.693844 33.96729,41.99986 C33.96729,43.305876 32.904902,44.36887 31.59828,44.36887" id="Fill-4610" stroke="#2897C5" stroke-width="1.4" sketch:type="MSShapeGroup"></path>
                <g id="Fill-4614-+-Fill-4619-+-Fill-4641" transform="translate(18.900000, 18.900000)" stroke="#009FC7" stroke-width="1.4" sketch:type="MSShapeGroup">
                    <path d="M6.28248316,2.1 L7,3.21048593 L1.29018287,6.65831202 L7,10.1227621 L6.21847931,11.2 L0,7.36649616 L0,5.93350384 L6.28248316,2.1 Z" id="Fill-4614"></path>
                    <path d="M26.6,6.63350384 L26.6,8.06982097 L20.3815207,11.9 L19.6,10.8227621 L25.3098171,7.35831202 L19.6,3.91381074 L20.3175168,2.8 L26.6,6.63350384 Z" id="Fill-4619"></path>
                    <path d="M10.2386204,14.7 L9.1,14.1687147 L15.6772821,0 L16.8,0.561170093 L10.2386204,14.7 Z" id="Fill-4641"></path>
                </g>
            </g>
        </g>
    </g>
</svg>

<svg width="63" height="63" viewBox="0 0 63 63" xmlns="http://www.w3.org/2000/svg">
    <title>
        illus-web
    </title>
    <g fill="#FFF" fill-rule="evenodd">
        <path d="M63 31.5C63 48.897 48.897 63 31.5 63S0 48.897 0 31.5 14.103 0 31.5 0 63 14.103 63 31.5"/>
        <path d="M53.998 43.91a2.036 2.036 0 0 1-2.036 2.036H11.235a2.036 2.036 0 0 1-2.037-2.037V15.4c0-1.125.912-2.037 2.037-2.037h40.727c1.125 0 2.036.912 2.036 2.037v28.51z" stroke="#2897C5" stroke-width="1.4"/>
        <path d="M37.708 51.164H25.489v-5.218h12.219v5.218zm4.072 1.018c0 .562-.456 1.018-1.018 1.018H22.435a1.018 1.018 0 1 1 0-2.036h18.327c.562 0 1.018.455 1.018 1.018m12.218-8.272V37.8h-44.8v6.11c0 1.124.912 2.036 2.037 2.036h40.727a2.036 2.036 0 0 0 2.036-2.037" stroke="#2897C5" stroke-width="1.4"/>
        <path d="M31.598 44.369a2.372 2.372 0 0 1-2.369-2.37 2.372 2.372 0 0 1 2.37-2.368A2.372 2.372 0 0 1 33.966 42a2.372 2.372 0 0 1-2.369 2.369" stroke="#2897C5" stroke-width="1.4"/>
        <path d="M25.182 21l.718 1.11-5.71 3.448 5.71 3.465-.782 1.077-6.218-3.834v-1.432L25.182 21zM45.5 25.534v1.436l-6.218 3.83-.782-1.077 5.71-3.465-5.71-3.444.718-1.114 6.282 3.834zM29.139 33.6L28 33.069 34.577 18.9l1.123.561L29.139 33.6z" stroke="#009FC7" stroke-width="1.4"/>
    </g>
</svg>
